X: 71
T: No_169.krn
N: Derived from No_169.krn
%%abc-version 2.0
%%abcx-abcm2ps-target-version 5.9.1 (29 Sep 2008)
%%abc-creator hum2abc beta
%%abcx-conversion-date 2019/03/15 08:29:13
%%humdrum-veritas 170371178
%%humdrum-veritas-data 2334098350
%%linebreak <none>
%%barnumbers 0
L: 1/8
M: 2/4
%%staves {1 2}
V: 1 clef=treble
V: 2 clef=bass
K: D
[V:1] [K:clef=treble][M:2/4]F2A2 | 
[V:2] [K:clef=bass][M:2/4]G,,/!accent!G,, z/ G,,/!accent!G,, z/ | 
[V:1] F3F/F/ | 
[V:2] G,,/!accent!G,, z/ G,,/!accent!G,, z/ | 
[V:1] FF/E/ DD | 
[V:2] z4 | 
[V:1] F2F2 | 
[V:2] z4 | 
[V:1] D2B,B, | 
[V:2] z4 | 
[V:1] z4 ||  
[V:2] F,D B,B, ||  
[V:1] [M:3/4]z6 | 
[V:2] [M:3/4]B,6 | 
[V:1] D3/D/F2D2 | 
[V:2] z6 | 
[V:1] B,Dz4 ||  
[V:2] z2B,A,F,2 ||  
[V:1] [M:2/4]z4 | 
[V:2] [M:2/4]B,/B,3/ B,A, | 
[V:1] z4 | 
[V:2] F,4 | 
[V:1] z4 | 
[V:2] F,3/E,/D,2 | 
[V:1] z4 | 
[V:2] !fermata!F,E,D,2 | 
[V:1] z4 | 
[V:2] B,,3/B,,/B,,2 | 
[V:1] z4 |]  
[V:2] B,,4 |]  



